X:259
T: SOLDATISCHES LEBEN
N: E1399
O: Europa, Mitteleuropa, Deutschland, Hessen, Oberhessen; Limburg
R: Staende -, Soldaten - Lied
M: 6/8
L: 1/16
K: G
D2 | D2G2G2G2A2B2 | B2A2A2A4
A2 | B3cd2d2c2B2 | B6A4
A2 | A2A2B2c3BA2 | B4c2d4
A2 | A2A2B2c3BA2 | B4c2d4
Bc | d2d2d2e2d2c2 | B4c2d4
dc | B3cB2A2G2A2 | G6z4

